X:1
T:Bear with a doll
C:Maria Kachurbina
Z:Copyright © www.realbook.site
L:1/4
M:4/4
I:linebreak $
K:C
V:1 treble stafflines=5 
V:1
 C D E F | G G G/F/ E | F F F/E/ D | C E G2 |$ C D E F | G G G/F/ E | F F F/E/ D | C E C2 ||$ %8
 A A A/G/ F | G G G/F/ E | F F F/E/ D | C E G2 |$ A A A/G/ F | G G G/F/ E | F F F/E/ D | C E C2 :| %16

